dist/svg/spyware.svg

<!-- Generated by Trend Micro Style Portal -->
<svg version="1.1" xmlns="http://www.w3.org/2000/svg" width="16" height="16" viewBox="0 0 16 16">
  <title>spyware</title>
  <path fill="rgb(34,34,34)" d="M2.5 6h1.5v1.854c0 0 0 0 0 0 0 1.185 0.961 2.146 2.146 2.146h3.708c1.185-0 2.146-0.961 2.146-2.146 0-0 0-0 0-0v0-1.854h1.5c0.276 0 0.5-0.224 0.5-0.5s-0.224-0.5-0.5-0.5v0l-1.531-0.278c-0.196-1.684-0.687-4.722-1.681-4.722-1.373 0-1.54 1.817-2.288 1.823-0.748-0.006-0.915-1.823-2.288-1.823-0.994 0-1.485 3.037-1.681 4.722l-1.531 0.278c-0.276 0-0.5 0.224-0.5 0.5s0.224 0.5 0.5 0.5v0zM8.773 8.56l1.817-1.27c0.036-0.027 0.081-0.044 0.13-0.044 0.087 0 0.162 0.052 0.196 0.127l0.001 0.001c0.016 0.035 0.031 0.077 0.043 0.12l0.001 0.006c0.026 0.084 0.041 0.18 0.041 0.279 0 0.232-0.081 0.445-0.216 0.612l0.001-0.002c-0.643 0.794-1.976 0.396-1.976 0.396-0.138-0.041-0.155-0.142-0.037-0.225zM5.040 7.5c0.013-0.049 0.028-0.091 0.046-0.131l-0.002 0.005c0.034-0.076 0.109-0.128 0.196-0.128 0.049 0 0.095 0.017 0.131 0.044l-0-0 1.817 1.27c0.118 0.082 0.101 0.184-0.037 0.225 0 0-1.334 0.398-1.976-0.396-0.134-0.165-0.215-0.378-0.215-0.61 0-0.1 0.015-0.196 0.043-0.286l-0.002 0.007zM12.030 13.53c0.147-0.67 0.35-1.259 0.61-1.814l-0.022 0.052c0.923-2.135 0-2.135-0.924-1.067s-2.694 2.299-3.694 2.299-2.771-1.232-3.694-2.299-1.847-1.067-0.924 1.067c0.238 0.503 0.441 1.092 0.577 1.705l0.011 0.057c-2.375 0.643-3.97 1.732-3.97 2.47h16c0-0.737-1.596-1.827-3.97-2.47z"></path>
</svg>

<svg width="16" height="16" viewBox="0 0 16 16" fill="rgb(34, 34, 34)" xmlns="http://www.w3.org/2000/svg"><title>spyware</title><path d="M2.5 6H4V7.854C4 9.039 4.961 10 6.146 10H9.854C11.039 10 12 9.039 12 7.854V6H13.5C13.776 6 14 5.776 14 5.5C14 5.224 13.776 5 13.5 5L11.969 4.722C11.773 3.038 11.282 0 10.288 0C8.915 0 8.748 1.817 8 1.823C7.252 1.817 7.085 0 5.712 0C4.718 0 4.227 3.037 4.031 4.722L2.5 5C2.224 5 2 5.224 2 5.5C2 5.776 2.224 6 2.5 6ZM8.773 8.56L10.59 7.29C10.626 7.263 10.671 7.246 10.72 7.246C10.807 7.246 10.882 7.298 10.916 7.373L10.917 7.374C10.933 7.409 10.948 7.451 10.96 7.494L10.961 7.5C10.987 7.584 11.002 7.68 11.002 7.779C11.002 8.011 10.921 8.224 10.786 8.391L10.787 8.389C10.144 9.183 8.811 8.785 8.811 8.785C8.673 8.744 8.656 8.643 8.774 8.56H8.773ZM5.04 7.5C5.053 7.451 5.068 7.409 5.086 7.369L5.084 7.374C5.118 7.298 5.193 7.246 5.28 7.246C5.329 7.246 5.375 7.263 5.411 7.29L7.228 8.56C7.346 8.642 7.329 8.744 7.191 8.785C7.191 8.785 5.857 9.183 5.215 8.389C5.081 8.224 5 8.011 5 7.779C5 7.679 5.015 7.583 5.043 7.493L5.04 7.5ZM12.03 13.53C12.177 12.86 12.38 12.271 12.64 11.716L12.618 11.768C13.541 9.633 12.618 9.633 11.694 10.701C10.77 11.769 9 13 8 13C7 13 5.229 11.768 4.306 10.701C3.383 9.634 2.459 9.634 3.382 11.768C3.62 12.271 3.823 12.86 3.959 13.473L3.97 13.53C1.595 14.173 0 15.262 0 16H16C16 15.263 14.404 14.173 12.03 13.53Z" fill="rgb(34, 34, 34)" fill-opacity="1.00"/></svg>
